X:1
T:Soy serranica
T:Anonymous
T:Source : Cancionero de Uppsala : Villancicos---Venetia---G.Scotto---1556. Editor : André Vierendeels (15/04/17).
T:Notes : Original clefs : C&, C3n C3 F3 Original note values have been halved Editorial accidentals above the staff Dotted brackets indicate black notes
T:Soy serranica
T:©
T:©
C:Anonymous
Z:©
%%score [ 1 [ 2 3 ] 4 ]
L:1/8
Q:1/4=125
M:3/2
K:F
V:1 treble nm="Soprano" snm="S"
V:2 treble-8 nm="Tenor 1" snm="T 1"
V:3 treble-8 nm="Tenor 2" snm="T 2"
V:4 bass nm="Bass" snm="B"
V:1
 F4 F4 F4 | G4 A6 A2 | c4 d4 d4 | c8 B4 |1 G4 A8 :|2 G4 A8 || z4 z4 A4 | c4 d4 d4 | %8
w: Soy ser- ra-|ni- ca y|ven- go des-|tre- ma-|du- ra,|su- ra,|si-|me va- le-|
w: En fri- o|que- mo y|me que- mo|sin me-|su- ra,||||
"^-natural" c8 B4 | G4 A6 G2 | F8 E4 | !fermata!F12 |: z12 | F4 F4 F4 | G4 A8 | z4 z4 A4 | %16
w: ra ven-|tu- * *||ra.||Soy la sti-|ma- da|en|
w: |||||Soy des- a-|ma- da|tri-|
 c4 A4 F4 | G4 B8 | A6 G2 F4 | G4 A6 G2 | F8 E4 | F12 :| %22
w: fue- go da'a-|mor me|que- * *|||mo.|
w: ste de- lo|que te-||||mo.|
V:2
 c4 c4 d4 | e4 f6 f2 | f4 f4 f4 | f6 e2 d2 c2 |1 e4 f4 F4 :|2 e4 f4 F4 || z4 A4 c4 | e4 g4 g4 | %8
w: Soy ser- ra-|ni- ca y|ven- go des-|tre- * * *|ma- du- ra,|me- su- ra,|si- me|va- le- ra|
w: En fri- o|que- mo y|me que- mo|sin _ _ _|me- su- ra,||||
 e2 f2 g8 | e4 f6 e2 | d4 c8 | c4 !fermata!c8 |: c4 c4 c4 | d8 d4 | e4 f8 | F4 A4 c4 | A4 c4 d4 | %17
w: ven- * tu-|||* ra.|Soy la sti-|ma- da,|en fue-|go d'a- mor|me que- *|
w: ||||Soy des- a-|ma- da,|tri- ste|de- lo que|te- * *|
 e4 f8 | f4 c4 d4 | e4 e2 c4 BA | B4 c8 | c12 :| %22
w: * mo,|me que- *|* mo, me- * *|* que-|mo.|
w: * mo,|que te- *|* mo, que _ _|_ te-|mo.|
V:3
 F4 F4 A4 | c4 c6 c2 | A4 B4 B4 | A8 B4 |1 c4 c8 :|2 c4 c8 || A4 c4 F3 G | A4 B8 | c4 d8 | c8 A4 | %10
w: Soy ser- ra-|ni- ca y|ven- go des-|tre- ma-|du- ra,|su- ra,|si- me va- *|* le-|ra ven-||
w: En fri- o|que- mo y|me que- mo|sin me-|su- ra,||||||
 B4 G8 | F8 !fermata!F4 |: A4 A4 A4 | B4 B4 A4 | c8 A4 | c4 A4 F4 | A8 A4 | c4 d8 | c4 F4 F4 | %19
w: tu- *|* ra.|Soy la sti-|ma- da, en|fue- go|d'a- mor me|que- mo,|me que-|* mo, me|
w: ||Soy des- a-|ma- da, tri-|* ste|de- lo que|te- mo,|que te-|* mo, que|
 c8 F4- | F4 G8 | F12 :| %22
w: que- *||mo.|
w: te- *||mo.|
V:4
 F,4 F,4 D,4 | C,4 F,6 F,2 | F,4 B,,4 B,,4 | F,8 G,4 |1 C,4 F,8 :|2 C,4 F,4 A,4 || C4 F,3 G, A,4 | %7
w: Soy ser- ra-|ni- ca y|ven- go des-|tre- ma-|du- ra,|su- ra, si-|me va- * *|
w: En fri- o|que- mo y|que- mo me|sin me-|su- ra,|||
 A,4 G,8 | A,4 G,8 | C,4 F,8 | B,,4 C,8 | !fermata!F,12 |: F,4 F,4 F,4 | B,,4 B,,4 D,4 | C,4 F,8 | %15
w: le- ra|ven- tu-|||ra.|Soy la sti-|ma- da, en|fue- go,|
w: |||||Soy des- a-|ma- da, tri-|* ste|
 A,4 C4 A,4 | F,6 F,2 D,4 | C,4 B,,8 | F,6 E,2 D,4 | C,8 D,4- | D,4 C,8 | F,12 :| %22
w: en fue- go|d'a- mor me|que- mo,|d'a- mor me|que- *||mo.|
w: de- * lo|que _ _|te- mo,|qie _ _|te- *||mo.|

